!!!!SEGMENT: pl-cz--i-155--003-002_anonim--partita-es-allegro.krn
!!!cenid: 18xx:2503
!!!COM: Anonim
!!!COM-rismID: pe30004985
!!!CDT:
!!!CNT:
!!!OPR: Partita Es
!!!OTL: Allegro
!!!OMV: 002
!!!PDT:
!!!AGN: Secular; Partita
!!!SMS-siglum: PL-CZ
!!!SMS-shelfmark: I-155
!!!SMS-shelfwork: 003-002 M
!!!SMS-variant:
!!!SMS-altvar:
!!!NIFC-rismSourceID: 1001012510
!!!NIFC-islandoraID: pl-cz:814
!!!URL-pdf-islandora: https://repozytorium.nifc.pl/islandora/object/pl-cz%3A814/datastream/PDF/view
!!!URL-scan: https://polish.musicsources.pl/pl/lokalizacje/galeria/rekopisy/557 @EN{Scan on Polish Music Herritage in Open Access Website} @PL{Skany w portalu Dziedzictwo Muzyki Polskiej w otwartym dostępie}
!!!ONB-nifc: UWAGA: Parthia 3 (003), części: 1. Adagio, 2. Allegro, 3. Menuetto, 4. Poloneser, 5. Finale. Uwaga: 5 partii
!!!AIN: 1 clars 2 cor 1 empty 1 fagot
!!!key:
**kern	**kern	**kern	**kern	**kern
*part5	*part4	*part3	*part2	*part1
*staff5	*staff4	*staff3	*staff2	*staff1
*Icor	*Icor	*Ifagot	*Iclars	*Iempty
*I"Corno Secondo	*I"Corno. Primo	*I"Fagotto	*I"Clarinetto Secondo	*I"Clainetto Primo
*I'cor II	*I'cor I	*I'fag	*I'cl II	*I'cl I
*>[A,A,B,B,C,C,D,D,A,A,B,B]	*>[A,A,B,B,C,C,D,D,A,A,B,B]	*>[A,A,B,B,C,C,D,D,A,A,B,B]	*>[A,A,B,B,C,C,D,D,A,A,B,B]	*>[A,A,B,B,C,C,D,D,A,A,B,B]
*clefG2	*clefG2	*clefF4	*clefG2	*clefG2
*ITrd5c9	*ITrd5c9	*	*ITrd1c2	*ITrd1c2
*k[b-e-a-]	*k[b-e-a-]	*k[b-e-a-]	*k[b-e-a-]	*k[b-e-a-]
*E-:	*E-:	*E-:	*E-:	*E-:
*M2/4	*M2/4	*M2/4	*M2/4	*M2/4
*all\right	*all\right	*all\right	*all\right	*all\right
*>A	*>A	*>A	*>A	*>A
!	!LO:TX:a:i:t=Allo	!	!	!
!LO:TX:a:i:t=Allo	!	!LO:TX:a:i:t=Allo	!LO:TX:a:i:t=Allo	!
8r	8r	8r	8r	8b-\
=1	=1	=1	=1	=1
*	*	*2\right	*	*
*	*	*tremolo	*	*
4E-/	4e-\	8e-\L	8g\L	8ee-\L
.	.	8e-\	8g\J	8ee-\J
4E-/	4e-\	8e-\	16g\LL	16ee-\LL
.	.	.	16a-\	16ff\
.	.	8e-\J	16b-\	16gg\
.	.	.	16g\JJ	16ee-\JJ
*	*	*Xtremolo	*	*
=2	=2	=2	=2	=2
8E-/L	8e-\L	8e-\L	8b-\L	8dd\L
8E-/J	8e-\J	8e-\J	8a-\J	8cc\J
4E-/	4e-\	4c\	4a-\	4cc\
=3	=3	=3	=3	=3
4B-/	4f\	4BB-/	8ff\L	8aa-\L
.	.	.	8ff\	8aa-\
4e-\	4g\	4E-\	8ee-\	8gg\
.	.	.	8ee-\J	8gg\J
=4	=4	=4	=4	=4
*	*	*	*2\right	*
*	*	*	*tremolo	*
!	!	!LO:TX:t=P:problem=mixed beam	!	!
8B-/L	8f\L	8BB-/L	8dd\L	8ff\L
8B-/J	8f\J	8B-\J	8dd\	8ff\
4B-/	4f\	4BB-/	8dd\	8ff\J
.	.	.	8dd\J	8b-\|
*	*	*	*Xtremolo	*
=5	=5	=5	=5	=5
*	*	*tremolo	*	*
4E-/	8e-\L	8e-\L	8g\L	8ee-\L
.	8e-\J	8e-\	8g\J	8ee-\J
4E-/	4e-\	8e-\	16g\LL	16ee-\LL
.	.	.	16a-\	16ff\
.	.	8e-\J	16b-\	16gg\
.	.	.	16g\JJ	16ee-\JJ
*	*	*Xtremolo	*	*
!	!	!	!LO:LB:g=original	!
=6	=6	=6	=6	=6
8E-/L	8e-\L	8e-\L	8b-\L	8dd\L
8E-/J	8e-\J	8e-\J	8a-\J	8cc\J
4E-/	4e-\	4c\	4a-\	4cc\
!	!	!LO:LB:g=original	!	!LO:LB:g=original
=7	=7	=7	=7	=7
!	!	!LO:TX:t=P:problem=mixed beam	!	!
4e-\	4g\	8A-\L	4cc\	16eeX\LL
.	.	.	.	16ff\
.	.	8F\	.	16aa-\
.	.	.	.	16ff\JJ
4B-/	4f\	8B-\	8g/L	8ee-\L
.	.	8BB-/J	8f/J	8dd\J
=8	=8	=8	=8	=8
!	!	!LO:TX:t=P:problem=mixed beam	!	!
8G/L	8e-\L	8E-\L	8g/L	8ee-\L
8G/	8e-\	8BB-\	8g/	8ee-\
8G/J	8e-\J	8EE-/J	8g/J	8ee-\J
!LO:LB:g=original	!	!	!	!
=:|!|:	=:|!|:	=:|!|:	=:|!|:	=:|!|:
*>B	*>B	*>B	*>B	*>B
8r	8r	8r	8r	8b-\
!	!LO:LB:g=original	!	!	!
=9	=9	=9	=9	=9
4B-/	4f\	4BB-\	8dd\L	8ff\L
.	.	.	16dd\L	16ff\L
.	.	.	16dd\JJ	16ff\JJ
4G/	4e-\	4E-\	8ee-\L	8gg\L
.	.	.	16ee-\L	16gg\L
.	.	.	16ee-\JJ	16gg\JJ
=10	=10	=10	=10	=10
!	!	!LO:TX:t=P:problem=mixed beam	!	!
8B-/L	8f\L	8BB-/L	8dd\L	8ff\L
8B-/J	8f\J	8B-\J	8dd\J	8ff\J
4B-/	4f\	4BB-/	4dd\	4ff\
=11	=11	=11	=11	=11
8B-/L	8f\L	4E-\	8gg\L	8bb-\L
8e-/	8g\	.	8ee-\	8gg\
8B-/	8f\	8D\L	8ff\	8aa-\
8G/J	8e-\J	8E-\J	8ee-\J	8gg\J
=12	=12	=12	=12	=12
!	!	!LO:TX:t=P:problem=mixed beam	!	!
8B-/L	8f\L	8BB-/L	8dd\L	8ff\L
8B-/	8f\	8B-\J	8dd\	8ff\
8B-/J	8f\J	4BB-/	8dd\J	8ff\
8r	8r	.	8r	8b-\J|
!	!	!	!LO:LB:g=original	!LO:LB:g=original
=13	=13	=13	=13	=13
*	*	*tremolo	*tremolo	*
4E-/	4e-\	8e-\L	8g/L	8ee-\L
.	.	8e-\	8g/	8ee-\J
4E-/	4e-\	8e-\	8g/	16ee-\LL
.	.	.	.	16ff\
.	.	8e-\J	8g/J	16gg\
.	.	.	.	16ee-\JJ
*	*	*Xtremolo	*Xtremolo	*
=14	=14	=14	=14	=14
8E-/L	8e-\L	8e-\L	8a-\L	8dd\L
8E-/J	8e-\J	8e-\J	8a-\J	8cc\J
4E-/	4e-\	4e-\	4a-\	4cc\
!	!	!LO:LB:g=original	!	!
=15	=15	=15	=15	=15
!	!	!LO:TX:t=P:problem=mixed beam	!	!
4e-\	4g\	8A-\L	4cc\	16eeX\LL
.	.	.	.	16ff\
.	.	8F\	.	16aa-\
.	.	.	.	16ff\JJ
4B-/	4f\	8B-\	8g/L	8ee-\L
.	.	8BB-/J	8f/J	8dd\J
=16	=16	=16	=16	=16
!	!	!LO:TX:t=P:problem=mixed beam	!	!
8G/L	8e-\L	8E-\L	8g/L	8ee-\L
8G/	8e-\	8BB-\	8g/	8ee-\
8G/J	8e-\J	8EE-/J	8g/J	8ee-\J
=:|!|:	=:|!|:	=:|!|:	=:|!|:	=:|!|:
*>C	*>C	*>C	*>C	*>C
!	!	!LO:TX:a:i:t=Trio	!LO:TX:a:i:t=Trio	!LO:TX:a:i:t=Trio
16G/LL	16e-\LL	8r	16g\LL	16ee-\LL
16B-/JJ	16f\JJ	.	16b-\JJ	16ff\JJ
!	!LO:LB:g=original	!	!	!
=17	=17	=17	=17	=17
8e-\L	8g\L	8r	8ee-\L	8gg\L
8e-\	8g\	8E-\L	8ee-\	8gg\
8e-\	8g\	8G\	8ee-\	8gg\
8f\J	8a-\J	8A-\J	8ff\J	8aa-\J
!LO:LB:g=original	!	!	!	!
=18	=18	=18	=18	=18
!	!	!LO:TX:t=P:problem=mixed beam	!	!
4e-\	4g\	8B-\L	4ee-\	4gg\
.	.	8BB-/	.	.
8B-\L	8f\L	8B-\J	8dd\L	8ff\L
16B-\L	16f\L	8r	16dd\L	16ff\L
16e-\JJ	16g\JJ	.	16ee-\JJ	16gg\JJ
!	!	!	!	!LO:LB:g=original
=19	=19	=19	=19	=19
8f\L	8a-\L	8r	8ff\L	8aa-\L
8f\	8a-\	8BB-/L	8ff\	8aa-\
8f\	8a-\	8D/	8ff\	8aa-\
8g\J	8b-\J	8BB-/J	8gg\J	8bb-\J
!	!	!	!LO:LB:g=original	!
=20	=20	=20	=20	=20
4f\	4a-\	8E-\L	4ff\	4aa-\
.	.	8BB-\J	.	.
4e-\	4g\	4EE-/	8ee-\L	8gg\L
.	.	.	16g\L	16ee-\L
.	.	.	16b-\JJ	16ff\JJ
=21	=21	=21	=21	=21
4e-\	4g\	8B-\L	8ee-\L	8gg\L
.	.	8B-\	8ee-\	8gg\
4B-/	4f\	8A-\	8cc\	8aa\
.	.	8A-\J	8cc\J	8aa\J
!	!	!LO:LB:g=original	!	!
=22	=22	=22	=22	=22
4B-/	4f\	8F\L	8dd\L	8bb-\L
.	.	8B-\	16ff\L	16aa-\L
.	.	.	16ee-\JJ	16gg\JJ
4r	4r	8D\	8dd\L	8ff\L
.	.	8F\J	8cc\J	8ee-\J
=23	=23	=23	=23	=23
!	!	!LO:TX:t=P:problem=mixed beam	!	!
4B-/	4f\	8BB-\L	16d/LL	16dd\LL
.	.	.	16f/	16ff\
.	.	8D\	16d/	16bb-\
.	.	.	16f/JJ	16ff\JJ
4f\	4f\	8F\	16e-/LL	16ff\LL
.	.	.	16f/	16ee-\
.	.	8FF/J	16e-/	16dd\
.	.	.	16f/JJ	16cc\JJ
=24	=24	=24	=24	=24
!	!	!LO:TX:t=P:problem=mixed beam	!	!
8B-/L	8f\L	8BB-/L	4d/	4b-\
8B-/	8f\	8B-\	.	.
8B-/J	8f\J	8BB-/J	8r	8r
=:|!|:	=:|!|:	=:|!|:	=:|!|:	=:|!|:
*>D	*>D	*>D	*>D	*>D
8r	8r	8r	16b-\LL	16dd\LL
.	.	.	16cc\JJ	16ee-\JJ
!	!	!	!	!LO:LB:g=original
=25	=25	=25	=25	=25
*	*	*tremolo	*	*
!	!	!LO:TX:t=P:problem=mixed beam	!	!
4B-/	4f\	8BB-/L	8dd\L	8ff\L
.	.	8B-\	8dd\	8ff\
4B-/	4f\	8BB-/	8dd\	8ff\
.	.	8B-\J	8ee-\J	8gg\J
*	*	*Xtremolo	*	*
!	!LO:LB:g=original	!	!LO:LB:g=original	!
=26	=26	=26	=26	=26
!	!	!LO:TX:t=P:problem=mixed beam	!	!
8B-/L	8f\L	8BB-/L	16ff\LL	16aa-\LL
.	.	.	16gg\	16bb-\
8B-/	8f\	8B-\	16ff\	16aa-\
.	.	.	16ee-\JJ	16gg\JJ
8B-/J	8f\J	8BB-/J	8dd\L	8ff\L
8r	8r	8r	16cc\L	16ee-\L
.	.	.	16dd\JJ	16ff\JJ
=27	=27	=27	=27	=27
*	*	*tremolo	*	*
!	!	!LO:TX:t=P:problem=mixed beam	!	!
4E-/	4e-\	8EE-/L	8ee-\L	8gg\L
.	.	8E-\	8ee-\	8gg\
4E-/	4e-\	8EE-/	8ee-\	8gg\
.	.	8E-\J	8gg\J	8bb-\J
*	*	*Xtremolo	*	*
!LO:PB:g=original	!	!	!	!
=28	=28	=28	=28	=28
!	!	!LO:TX:t=P:problem=mixed beam	!	!
8E-/L	8e-\L	8EE-/L	16gg\LL	16bb-\LL
.	.	.	16aa-\	16ccc\
8E-/	8e-\	8E-\J	16gg\	16bb-\
.	.	.	16ff\JJ	16aa-\JJ
8E-/J	8e-\J	4EE-/	8ee-\L	8gg\L
8r	8r	.	16cc\L	16ee-\L
.	.	.	16ee-\JJ	16ff\JJ
!	!	!LO:LB:g=original	!	!
=29	=29	=29	=29	=29
4G/	4e-\	8r	8ee-\L	8gg\L
.	.	8E-\L	8ee-\J	8gg\J
8r	8r	8G\	8ee-\L	8gg\L
8B-/	8f\	8A-\J	16ff\L	16aa-\L
.	.	.	16ee-\JJ	16gg\JJ
=30	=30	=30	=30	=30
!	!	!LO:TX:t=P:problem=mixed beam	!	!
4B-/	4f\	8B-\L	4dd\	4ff\
.	.	8BB-/	.	.
!	!	!	!LO:TX:t=P:problem=mixed beam	!
4e-\	4g\	8E-/	8ee-\L	8gg\L
.	.	8G/J	8g/J	8ee-\J
=31	=31	=31	=31	=31
!	!	!LO:TX:t=P:problem=mixed beam	!	!
4B-/	4f\	8A-\L	4a-/	16ff\LL
.	.	.	.	16gg\
.	.	8F\	.	16aa-\
.	.	.	.	16ff\JJ
4B-/	4f\	8B-\	16f/LL	16dd\LL
.	.	.	16g/	16ee-\
.	.	8BB-/J	16a-/	16ff\
.	.	.	16f/JJ	16dd\JJ
=32	=32	=32	=32	=32
8G/L	8e-\L	8E-\L	4g/	4ee-\
8G/	8e-\	8e-\J	.	.
!LO:TX:b:i:t=Allo da Capo	!	!LO:TX:b:i:t=Allo da Capo	!	!LO:TX:b:i:t=Allo da Capo
8G/J	8e-\J	8E-\	8ryy	8ryy
==	==	==	==	==
*-	*-	*-	*-	*-
!!!system-decoration: [(s1,s2s3)][(s4,s5)]
!!!RDF**kern: | = vertical stroke
!!!ENC: Tomasz Grochalski
!!!END: 2021-06-16
!!!EED: Andrzej Borzym
!!!EEV: 2021-06-20
